build/img/logo.svg

<?xml version="1.0" encoding="UTF-8"?>
<svg width="194px" height="57px" viewBox="0 0 194 57" version="1.1" xmlns="http://www.w3.org/2000/svg" xmlns:xlink="http://www.w3.org/1999/xlink">
    <!-- Generator: Sketch 46.2 (44496) - http://www.bohemiancoding.com/sketch -->
    <title>Group 445</title>
    <desc>Created with Sketch.</desc>
    <defs></defs>
    <g id="Symbols" stroke="none" stroke-width="1" fill="none" fill-rule="evenodd">
        <g id="header" transform="translate(-34.000000, -92.000000)" fill="#455A64">
            <g id="Group-445" transform="translate(34.000000, 92.000000)">
                <g id="SimpleSail" transform="translate(74.905600, 20.064000)">
                    <path d="M9.115744,22.341952 C9.115744,21.6713652 8.91666652,21.1003272 8.5185056,20.6288208 C8.12034468,20.1573144 7.62265099,19.7120096 7.0254096,19.2928928 C6.42816821,18.873776 5.77854698,18.4441878 5.0765264,18.0041152 C4.37450582,17.5640426 3.72488459,17.0506323 3.1276432,16.4638688 C2.53040181,15.8771053 2.03270812,15.185573 1.6345472,14.3892512 C1.23638628,13.5929294 1.0373088,12.6184975 1.0373088,11.4659264 C1.0373088,10.3971787 1.19971411,9.49085225 1.5245296,8.74692 C1.84934509,8.00298775 2.29464997,7.39527756 2.8604576,6.9237712 C3.42626523,6.45226484 4.09684199,6.1064987 4.872208,5.8864624 C5.64757401,5.6664261 6.4753172,5.5564096 7.3554624,5.5564096 C8.42421014,5.5564096 9.41959752,5.66118722 10.3416544,5.8707456 C11.2637113,6.08030398 12.0285879,6.36320355 12.6363072,6.7194528 L11.4103968,10.2085824 C11.0541476,9.95711234 10.5250206,9.72660158 9.823,9.5170432 C9.12097942,9.30748482 8.36134169,9.2027072 7.544064,9.2027072 C6.72678631,9.2027072 6.0981206,9.37035139 5.658048,9.7056448 C5.2179754,10.0409382 4.9979424,10.533393 4.9979424,11.183024 C4.9979424,11.7697875 5.19701988,12.2884367 5.5951808,12.7389872 C5.99334172,13.1895377 6.49103541,13.6243648 7.0882768,14.0434816 C7.68551819,14.4625984 8.33513942,14.8974255 9.03716,15.347976 C9.73918058,15.7985265 10.3888018,16.3224146 10.9860432,16.919656 C11.5832846,17.5168974 12.0809783,18.2189074 12.4791392,19.0257072 C12.8773001,19.832507 13.0763776,20.7912222 13.0763776,21.9018816 C13.0763776,23.012541 12.9139723,23.9764951 12.5891568,24.7937728 C12.2643413,25.6110505 11.8033198,26.2868661 11.2060784,26.82124 C10.608837,27.3556139 9.89111032,27.7590077 9.0528768,28.0314336 C8.21464328,28.3038595 7.28212247,28.4400704 6.2552864,28.4400704 C4.95602444,28.4400704 3.81918727,28.3143373 2.8447408,28.0628672 C1.87029433,27.8113971 1.12113435,27.5284976 0.5972384,27.21416 L1.886016,23.6621632 C2.30513276,23.9136333 2.88140967,24.1650995 3.614864,24.4165696 C4.34831833,24.6680397 5.13415048,24.7937728 5.972384,24.7937728 C8.06796781,24.7937728 9.115744,23.9765074 9.115744,22.341952 Z M15.4653312,12.2832 L19.2059296,12.2832 L19.2059296,28 L15.4653312,28 L15.4653312,12.2832 Z M15.0566944,7.8510624 C15.0566944,7.22238726 15.2557719,6.70373804 15.6539328,6.2950992 C16.0520937,5.88646036 16.6178929,5.682144 17.3513472,5.682144 C18.0848015,5.682144 18.6715562,5.88122148 19.1116288,6.2793824 C19.5517014,6.67754332 19.7717344,7.20143142 19.7717344,7.8510624 C19.7717344,8.50069338 19.5517014,9.01410371 19.1116288,9.3913088 C18.6715562,9.76851389 18.0848015,9.9571136 17.3513472,9.9571136 C16.6178929,9.9571136 16.0520937,9.76327501 15.6539328,9.375592 C15.2557719,8.98790899 15.0566944,8.47973754 15.0566944,7.8510624 Z M29.4847168,28 L29.4847168,18.8528224 C29.4847168,17.5326046 29.3799392,16.6158004 29.1703808,16.1023824 C28.9608224,15.5889644 28.5521897,15.3322592 27.9444704,15.3322592 C27.4415303,15.3322592 27.0276587,15.4946645 26.7028432,15.81948 C26.3780277,16.1442955 26.1318003,16.5372116 25.9641536,16.99824 L25.9641536,28 L22.2235552,28 L22.2235552,12.2832 L25.1154464,12.2832 L25.5869504,14.169216 L25.6812512,14.169216 C26.0794121,13.519585 26.5771058,12.9799803 27.1743472,12.5503856 C27.7715886,12.1207909 28.5626596,11.9059968 29.547584,11.9059968 C30.3648617,11.9059968 31.0301996,12.0841188 31.5436176,12.440368 C32.0570356,12.7966172 32.4604295,13.425283 32.7538112,14.326384 C33.1519721,13.5719738 33.6758602,12.9799803 34.3254912,12.5503856 C34.9751222,12.1207909 35.7399988,11.9059968 36.620144,11.9059968 C37.3116867,11.9059968 37.9036802,11.9950578 38.3961424,12.1731824 C38.8886046,12.351307 39.2867595,12.660401 39.5906192,13.1004736 C39.8944789,13.5405462 40.1197507,14.1430175 40.2664416,14.9079056 C40.4131325,15.6727937 40.4864768,16.6419867 40.4864768,17.8155136 L40.4864768,28 L36.7458784,28 L36.7458784,18.4441856 C36.7458784,17.3754379 36.6515785,16.5896057 36.462976,16.0866656 C36.2743735,15.5837255 35.855263,15.3322592 35.205632,15.3322592 C34.681736,15.3322592 34.2573867,15.4841867 33.9325712,15.7880464 C33.6077557,16.0919061 33.3720061,16.5057776 33.2253152,17.0296736 L33.2253152,28 L29.4847168,28 Z M43.064032,12.2832 L45.8616224,12.2832 L46.2388256,14.0749152 L46.3331264,14.0749152 C46.8151107,13.320505 47.3547154,12.7704225 47.9519568,12.4246512 C48.5491982,12.0788799 49.2878804,11.9059968 50.1680256,11.9059968 C51.7606693,11.9059968 52.960373,12.5084681 53.7671728,13.7134288 C54.5739726,14.9183895 54.9773664,16.9248809 54.9773664,19.7329632 C54.9773664,22.5410455 54.4744338,24.6942256 53.4685536,26.192568 C52.4626734,27.6909104 51.0062645,28.4400704 49.0992832,28.4400704 C48.5963431,28.4400704 48.1667548,28.3981594 47.8105056,28.314336 C47.4542564,28.2305126 47.118968,28.0943017 46.8046304,27.9056992 L46.8046304,34.28672 L43.064032,34.28672 L43.064032,12.2832 Z M46.8046304,24.4794368 C47.0141888,24.6889952 47.2499384,24.8461616 47.5118864,24.9509408 C47.7738344,25.05572 48.1143616,25.1081088 48.5334784,25.1081088 C49.3717119,25.1081088 50.0108554,24.6942372 50.450928,23.8664816 C50.8910006,23.038726 51.1110336,21.629467 51.1110336,19.6386624 C51.1110336,18.1507979 50.9433894,17.045394 50.608096,16.3224176 C50.2728026,15.5994412 49.7174812,15.2379584 48.9421152,15.2379584 C47.8943233,15.2379584 47.1818355,15.8561464 46.8046304,17.0925408 L46.8046304,24.4794368 Z M60.9183168,22.9077568 C60.9183168,23.6412111 60.9916611,24.1650992 61.138352,24.4794368 C61.2850429,24.7937744 61.5260314,24.9509408 61.8613248,24.9509408 C62.0499273,24.9509408 62.2437659,24.9299853 62.4428464,24.8880736 C62.6419269,24.8461619 62.8671987,24.7728176 63.1186688,24.6680384 L63.4644384,27.685664 C63.2129683,27.8533107 62.7833801,28.0104771 62.1756608,28.157168 C61.5679415,28.3038589 60.9497535,28.3772032 60.3210784,28.3772032 C59.2732865,28.3772032 58.4874544,28.1152592 57.9635584,27.5913632 C57.4396624,27.0674672 57.1777184,26.1768575 57.1777184,24.9195072 L57.1777184,5.99648 L60.9183168,5.99648 L60.9183168,22.9077568 Z M75.3777728,26.8369568 C74.8538768,27.2979852 74.141389,27.6751847 73.240288,27.9685664 C72.339187,28.2619481 71.3961884,28.4086368 70.411264,28.4086368 C69.3215604,28.4086368 68.3838007,28.2200371 67.5979568,27.842832 C66.8121129,27.4656269 66.1677305,26.9207833 65.6647904,26.2082848 C65.1618503,25.4957863 64.7898897,24.6313709 64.5488976,23.6150128 C64.3079055,22.5986547 64.1874112,21.440862 64.1874112,20.1416 C64.1874112,17.3125619 64.7479715,15.2222484 65.8691088,13.8705968 C66.9902461,12.5189452 68.5461938,11.8431296 70.5369984,11.8431296 C71.2075852,11.8431296 71.8572065,11.9426683 72.4858816,12.1417488 C73.1145567,12.3408293 73.675117,12.6761176 74.1675792,13.147624 C74.6600414,13.6191304 75.0581963,14.2477961 75.362056,15.03364 C75.6659157,15.8194839 75.8178432,16.8096324 75.8178432,18.0041152 C75.8178432,18.4651436 75.7916488,18.9575984 75.7392592,19.4814944 C75.6868696,20.0053904 75.6082864,20.5711895 75.5035072,21.1789088 L67.8651424,21.1789088 C67.9070541,22.4781708 68.1794759,23.4735581 68.682416,24.1651008 C69.1853561,24.8566435 69.9921438,25.2024096 71.1028032,25.2024096 C71.77339,25.2024096 72.3863391,25.097632 72.9416688,24.8880736 C73.4969985,24.6785152 73.9213479,24.4584822 74.2147296,24.227968 L75.3777728,26.8369568 Z M70.4741312,15.0493568 C69.6778094,15.0493568 69.0805769,15.3689285 68.682416,16.0080816 C68.2842551,16.6472347 68.0537443,17.5430833 67.9908768,18.6956544 L72.3287136,18.6956544 C72.3915811,17.5011716 72.265848,16.5948452 71.9515104,15.976648 C71.6371728,15.3584508 71.144718,15.0493568 70.4741312,15.0493568 Z M85.970896,22.341952 C85.970896,21.6713652 85.7718185,21.1003272 85.3736576,20.6288208 C84.9754967,20.1573144 84.477803,19.7120096 83.8805616,19.2928928 C83.2833202,18.873776 82.633699,18.4441878 81.9316784,18.0041152 C81.2296578,17.5640426 80.5800366,17.0506323 79.9827952,16.4638688 C79.3855538,15.8771053 78.8878601,15.185573 78.4896992,14.3892512 C78.0915383,13.5929294 77.8924608,12.6184975 77.8924608,11.4659264 C77.8924608,10.3971787 78.0548661,9.49085225 78.3796816,8.74692 C78.7044971,8.00298775 79.149802,7.39527756 79.7156096,6.9237712 C80.2814172,6.45226484 80.951994,6.1064987 81.72736,5.8864624 C82.502726,5.6664261 83.3304692,5.5564096 84.2106144,5.5564096 C85.2793621,5.5564096 86.2747495,5.66118722 87.1968064,5.8707456 C88.1188633,6.08030398 88.8837399,6.36320355 89.4914592,6.7194528 L88.2655488,10.2085824 C87.9092996,9.95711234 87.3801726,9.72660158 86.678152,9.5170432 C85.9761314,9.30748482 85.2164937,9.2027072 84.399216,9.2027072 C83.5819383,9.2027072 82.9532726,9.37035139 82.5132,9.7056448 C82.0731274,10.0409382 81.8530944,10.533393 81.8530944,11.183024 C81.8530944,11.7697875 82.0521719,12.2884367 82.4503328,12.7389872 C82.8484937,13.1895377 83.3461874,13.6243648 83.9434288,14.0434816 C84.5406702,14.4625984 85.1902914,14.8974255 85.892312,15.347976 C86.5943326,15.7985265 87.2439538,16.3224146 87.8411952,16.919656 C88.4384366,17.5168974 88.9361303,18.2189074 89.3342912,19.0257072 C89.7324521,19.832507 89.9315296,20.7912222 89.9315296,21.9018816 C89.9315296,23.012541 89.7691243,23.9764951 89.4443088,24.7937728 C89.1194933,25.6110505 88.6584718,26.2868661 88.0612304,26.82124 C87.463989,27.3556139 86.7462623,27.7590077 85.9080288,28.0314336 C85.0697953,28.3038595 84.1372745,28.4400704 83.1104384,28.4400704 C81.8111764,28.4400704 80.6743393,28.3143373 79.6998928,28.0628672 C78.7254463,27.8113971 77.9762864,27.5284976 77.4523904,27.21416 L78.741168,23.6621632 C79.1602848,23.9136333 79.7365617,24.1650995 80.470016,24.4165696 C81.2034703,24.6680397 81.9893025,24.7937728 82.827536,24.7937728 C84.9231198,24.7937728 85.970896,23.9765074 85.970896,22.341952 Z M92.0375808,13.226208 C92.6662559,12.8490029 93.4520881,12.5451478 94.3951008,12.3146336 C95.3381135,12.0841194 96.4068452,11.968864 97.601328,11.968864 C99.3825742,11.968864 100.624189,12.4298855 101.32621,13.3519424 C102.02823,14.2739993 102.379235,15.5837195 102.379235,17.2811424 C102.379235,18.2660668 102.353041,19.2352598 102.300651,20.1887504 C102.248262,21.142241 102.211589,22.0747618 102.190634,22.9863408 C102.169678,23.8979198 102.185394,24.7780518 102.237784,25.6267632 C102.290174,26.4754746 102.431623,27.2770234 102.662138,28.0314336 L99.6130784,28.0314336 L99.01584,26.113984 L98.8901056,26.113984 C98.5548122,26.7217033 98.0833129,27.2246359 97.4755936,27.6227968 C96.8678743,28.0209577 96.1029977,28.2200352 95.1809408,28.2200352 C93.9445464,28.2200352 92.9701145,27.8061636 92.257616,26.978408 C91.5451175,26.1506524 91.1888736,25.0452485 91.1888736,23.6621632 C91.1888736,21.7761378 91.8594504,20.4349842 93.200624,19.6386624 C94.5417976,18.8423406 96.3544504,18.5070522 98.6386368,18.6327872 C98.743416,17.4173486 98.6648328,16.5372166 98.4028848,15.9923648 C98.1409368,15.447513 97.5803766,15.1750912 96.7211872,15.1750912 C96.0925121,15.1750912 95.4428908,15.2484355 94.772304,15.3951264 C94.1017172,15.5418173 93.5044848,15.7513725 92.9805888,16.0237984 L92.0375808,13.226208 Z M96.5325856,25.013808 C97.0983932,25.013808 97.5594148,24.8723582 97.915664,24.5894544 C98.2719132,24.3065506 98.5338573,23.9974566 98.701504,23.6621632 L98.701504,21.0531744 C98.2195197,20.9903069 97.7584982,20.9798291 97.3184256,21.0217408 C96.878353,21.0636525 96.4906758,21.1579523 96.1553824,21.3046432 C95.820089,21.4513341 95.5529061,21.6661282 95.3538256,21.949032 C95.1547451,22.2319358 95.0552064,22.5934186 95.0552064,23.0334912 C95.0552064,23.6831222 95.1861784,24.175577 95.4481264,24.5108704 C95.7100744,24.8461638 96.0715572,25.013808 96.5325856,25.013808 Z M105.30256,12.2832 L109.043158,12.2832 L109.043158,28 L105.30256,28 L105.30256,12.2832 Z M104.893923,7.8510624 C104.893923,7.22238726 105.093001,6.70373804 105.491162,6.2950992 C105.889323,5.88646036 106.455122,5.682144 107.188576,5.682144 C107.92203,5.682144 108.508785,5.88122148 108.948858,6.2793824 C109.38893,6.67754332 109.608963,7.20143142 109.608963,7.8510624 C109.608963,8.50069338 109.38893,9.01410371 108.948858,9.3913088 C108.508785,9.76851389 107.92203,9.9571136 107.188576,9.9571136 C106.455122,9.9571136 105.889323,9.76327501 105.491162,9.375592 C105.093001,8.98790899 104.893923,8.47973754 104.893923,7.8510624 Z M115.86425,22.9077568 C115.86425,23.6412111 115.937594,24.1650992 116.084285,24.4794368 C116.230976,24.7937744 116.471964,24.9509408 116.807258,24.9509408 C116.99586,24.9509408 117.189699,24.9299853 117.388779,24.8880736 C117.58786,24.8461619 117.813132,24.7728176 118.064602,24.6680384 L118.410371,27.685664 C118.158901,27.8533107 117.729313,28.0104771 117.121594,28.157168 C116.513874,28.3038589 115.895686,28.3772032 115.267011,28.3772032 C114.219219,28.3772032 113.433387,28.1152592 112.909491,27.5913632 C112.385595,27.0674672 112.123651,26.1768575 112.123651,24.9195072 L112.123651,5.99648 L115.86425,5.99648 L115.86425,22.9077568 Z"></path>
                </g>
                <g id="Group_63" transform="translate(0.000000, 0.407299)" fill-rule="nonzero">
                    <ellipse id="Ellipse_6" transform="translate(15.467560, 31.873023) rotate(-77.391000) translate(-15.467560, -31.873023) " cx="15.4675597" cy="31.8730229" rx="1.5235264" ry="1.3850848"></ellipse>
                    <path d="M20.0646688,28.3511008 C18.1251488,30.9366816 15.8057504,36.121888 8.6950688,37.0455008 L8.6950688,37.0455008 C11.0499136,37.1839424 11.8531424,36.5378816 13.3766688,37.0455008 C16.4237216,38.061408 12.315952,48.3689536 12.0390688,48.4151008 C11.9929216,48.5535424 11.9467744,48.5073952 12.0390688,48.4151008 C14.9938272,45.2296064 14.9436672,41.5197728 16.0518688,41.0583008 C16.7447456,40.7814176 17.479088,41.3311712 20.0646688,45.0711008 C20.1569632,45.2095424 20.110816,45.2556896 20.0646688,45.0711008 C17.4329408,38.6994432 16.1622208,35.6463712 20.7334688,28.3511008 C20.9180576,28.0280704 20.2492576,28.0742176 20.0646688,28.3511008 Z" id="Path_56"></path>
                    <path d="M56.1771936,38.3837696 C48.7916352,23.1926464 36.9425056,11.2706176 16.7179936,3.6061696 C24.8439136,18.1498944 26.4028864,23.3083488 27.4187936,39.0525696 C37.0702464,34.7120576 46.6213792,34.5053984 56.1771936,38.3837696 Z" id="Path_57"></path>
                    <path d="M12.7072,53.0967008 C12.0604704,52.4947808 11.138864,51.367184 11.3696,51.0903008 C13.539856,48.6893088 33.630608,43.1569952 50.16,43.0647008 C53.8076352,43.0185536 56.2012704,42.5109344 56.848,43.0647008 C58.3715264,44.3574912 52.1664,49.7527008 52.1664,49.7527008 L52.8352,49.7527008 C55.9745472,47.8131808 60.1431776,44.8704608 62.8672,40.3895008 C52.6633184,39.235152 42.0347488,40.3166016 26.752,43.7335008 L14.7136,0.2615008 L13.376,0.2615008 L24.7456,44.4023008 C19.1861036,45.7994539 13.8017377,47.8185911 8.6944,50.4215008 C9.2020192,51.2989664 11.06864,52.4499712 12.0384,53.0967008 C8.0215872,53.9280192 4.06296,55.1940576 -7.10542736e-15,56.4407008 C24.2861344,50.76192 48.2452256,50.7157728 71.5616,56.4407008 C52.5520792,50.3122082 32.2885572,49.1608718 12.7072,53.0967008 Z" id="Path_58"></path>
                </g>
            </g>
        </g>
    </g>
</svg>

<svg xmlns="http://www.w3.org/2000/svg" width="194" height="57" viewBox="0 0 194 57">
    <g fill="#455A64" fill-rule="evenodd">
        <text font-family="PTSans-NarrowBold, PT Sans Narrow" font-size="31.434" font-style="condensed" font-weight="bold" transform="translate(74.906 20.064)">
            <tspan x="0" y="28">SimpleSail</tspan>
        </text>
        <g fill-rule="nonzero" transform="translate(0 .407)">
            <ellipse cx="15.468" cy="31.873" rx="1.524" ry="1.385" transform="rotate(-77.391 15.468 31.873)"/>
            <path d="M20.065 28.351c-1.94 2.586-4.26 7.77-11.37 8.695 2.355.138 3.158-.508 4.682 0 3.047 1.015-1.061 11.323-1.338 11.37-.046.138-.092.091 0 0 2.955-3.186 2.905-6.896 4.013-7.358.693-.277 1.427.273 4.013 4.013.092.139.046.185 0 0-2.632-6.372-3.903-9.425.668-16.72.185-.323-.484-.277-.668 0zM56.177 38.384C48.792 23.193 36.943 11.27 16.718 3.606c8.126 14.544 9.685 19.702 10.7 35.447 9.652-4.34 19.203-4.548 28.76-.67z"/>
            <path d="M12.707 53.097c-.647-.602-1.568-1.73-1.337-2.007 2.17-2.4 22.26-7.933 38.79-8.025 3.648-.046 6.041-.554 6.688 0 1.524 1.292-4.682 6.688-4.682 6.688h.67c3.139-1.94 7.307-4.883 10.031-9.363-10.204-1.155-20.832-.073-36.115 3.344L14.714.262h-1.338l11.37 44.14a76.31 76.31 0 0 0-16.052 6.02c.508.877 2.375 2.028 3.344 2.675C8.022 53.928 4.063 55.194 0 56.44c24.286-5.68 48.245-5.725 71.562 0a116.799 116.799 0 0 0-58.855-3.344z"/>
        </g>
    </g>
</svg>
